src/assets/images/prototype/autres-elements/6-tablette-value.svg

<svg width="101" height="63" viewBox="0 0 101 63" fill="none" xmlns="http://www.w3.org/2000/svg">
<path d="M88.2336 19.2676C92.9472 21.0352 98.3483 28.1548 100.46 31.4936V44.7775C100.46 50.7478 96.2699 54.8465 94.175 56.1495C87.1918 60.8126 72.2096 61.3824 54.0173 61.8356C37.3516 62.2507 12.226 63.2571 6.39692 58.6372C1.29289 56.1495 0.322682 40.3787 0.147301 38.8587C0.540105 38.8587 -2.0896e-06 37.0911 0 31.4936C2.8409e-06 23.8837 6.03936 20.5933 12.226 19.2676C18.4127 17.9419 65.6964 17.0581 69.2317 17.0581C72.7669 17.0581 82.3415 17.0581 88.2336 19.2676Z" fill="#E6E6E6"/>
<path d="M88.2336 7.18462C92.9472 8.95224 98.3483 16.0718 100.46 19.4106V32.6945C100.46 38.6648 96.2699 42.7635 94.175 44.0665C87.1918 48.7296 72.2096 49.2994 54.0173 49.7526C37.3516 50.1677 12.226 51.1741 6.39692 46.5542C1.29289 44.0665 0.322682 28.2957 0.147301 26.7757C0.540105 26.7757 -2.0896e-06 25.0081 0 19.4106C2.8409e-06 11.8007 6.03936 8.51033 12.226 7.18462C18.4127 5.85891 65.6964 4.9751 69.2317 4.9751C72.7669 4.9751 82.3415 4.9751 88.2336 7.18462Z" fill="#2D74A9"/>
<path d="M88.2336 2.20952C92.9472 3.97714 98.3483 11.0967 100.46 14.4355V27.7194C100.46 33.6897 96.2699 37.7884 94.175 39.0914C87.1918 43.7545 72.2096 44.3243 54.0173 44.7775C37.3516 45.1926 12.226 46.199 6.39692 41.5791C1.29289 39.0914 0.322682 23.3206 0.147301 21.8006C0.540105 21.8006 -2.0896e-06 20.033 0 14.4355C2.8409e-06 6.8256 6.03936 3.53523 12.226 2.20952C18.4127 0.883809 65.6964 0 69.2317 0C72.7669 0 82.3415 0 88.2336 2.20952Z" fill="#66A6D6"/>
</svg>

<svg width="101" height="63" fill="none" xmlns="http://www.w3.org/2000/svg"><path d="M88.234 19.268c4.713 1.767 10.114 8.887 12.226 12.226v13.284c0 5.97-4.19 10.069-6.285 11.372-6.983 4.663-21.965 5.232-40.158 5.686-16.665.415-41.791 1.421-47.62-3.199C1.293 56.15.323 40.38.147 38.86.54 38.859 0 37.09 0 31.494c0-7.61 6.04-10.9 12.226-12.226 6.187-1.326 53.47-2.21 57.006-2.21 3.535 0 13.11 0 19.002 2.21z" fill="#E6E6E6"/><path d="M88.234 7.185c4.713 1.767 10.114 8.887 12.226 12.226v13.283c0 5.97-4.19 10.07-6.285 11.372-6.983 4.664-21.965 5.233-40.158 5.687-16.665.415-41.791 1.421-47.62-3.199C1.293 44.066.323 28.296.147 26.776.54 26.776 0 25.008 0 19.41 0 11.8 6.04 8.51 12.226 7.185c6.187-1.326 53.47-2.21 57.006-2.21 3.535 0 13.11 0 19.002 2.21z" fill="#2D74A9"/><path d="M88.234 2.21c4.713 1.767 10.114 8.887 12.226 12.226v13.283c0 5.97-4.19 10.07-6.285 11.372-6.983 4.663-21.965 5.233-40.158 5.687-16.665.415-41.791 1.421-47.62-3.199C1.293 39.091.323 23.321.147 21.801.54 21.8 0 20.033 0 14.436c0-7.61 6.04-10.9 12.226-12.226C18.413.884 65.696 0 69.232 0c3.535 0 13.11 0 19.002 2.21z" fill="#66A6D6"/></svg>
